packages/ui-icons/svg/Solid/audio-off.svg

<svg viewBox="0 0 1920 1920" version="1.1" xmlns="http://www.w3.org/2000/svg">
    <path d="M1129.43333,113 L1129.43333,1807.15 L903.546667,1807.15 L451.773333,1355.37667 L451.773333,564.773333 L903.546667,113 L1129.43333,113 Z M338.83,564.773333 L338.83,1355.37667 L169.415,1355.37667 C76.609463,1355.37667 1.51524776,1281.21051 0.0226440087,1188.76848 L-2.02476258e-10,1185.96167 L-2.02476258e-10,734.188333 C-2.02476258e-10,641.382796 74.1661599,566.288581 166.60819,564.795977 L169.415,564.773333 L338.83,564.773333 Z M1789.95097,635 L1920,764.926457 L1724.98774,959.938714 L1920,1154.95097 L1789.95097,1285 L1595.06129,1089.98774 L1400.04903,1285 L1270,1154.95097 L1465.01226,959.938714 L1270,764.926457 L1400.04903,635 L1595.06129,830.012257 L1789.95097,635 Z" stroke="none" stroke-width="1" fill-rule="evenodd"/>
</svg>

<svg viewBox="0 0 1920 1920" xmlns="http://www.w3.org/2000/svg">
    <path d="M1129.433 113v1694.15H903.547l-451.774-451.773V564.773L903.547 113h225.886ZM338.83 564.773v790.604H169.415c-92.806 0-167.9-74.166-169.392-166.609L0 1185.962V734.188c0-92.805 74.166-167.9 166.608-169.392l2.807-.023H338.83ZM1789.951 635 1920 764.926 1724.988 959.94 1920 1154.95 1789.951 1285l-194.89-195.012L1400.05 1285 1270 1154.951l195.012-195.012L1270 764.926 1400.049 635l195.012 195.012L1789.951 635Z" fill-rule="evenodd"/>
</svg>
